;FLAVOR:Marlin
;TIME:7126
;Filament used: 1.46896m, 1.38664m
;Layer height: 0.1
;MINX:-26.208
;MINY:-9.677
;MINZ:0.3
;MAXX:209.2
;MAXY:161.2
;MAXZ:20
;Generated with Cura_SteamEngine 4.3.0
T0
M140 S60
M105
M190 S60
M104 S200
M104 T1 S175
M105
M109 S200
M105
M109 T1 S175
M82 ;absolute extrusion mode
G21        ;metric values
G90        ;absolute positioning
M107       ;start with the fan off
G28 X0 Y0  ;move X/Y to min endstops
G28 Z0     ;move Z to min endstops
G1 Z2.0 F400 ;move the platform down 15mm
T0
G92 E0
G28
G1 Y0 F1200 E0
G92 E0
M117 BIBO Printing...
G92 E0
G92 E0
G1 F1500 E-6.5
;LAYER_COUNT:188
;LAYER:0
M107
M104 T1 S200
G0 F3600 X2.046 Y-4.147 Z0.3
;TYPE:SKIRT
G1 F1500 E0
G1 F1800 X2.046 Y13.887 E0.89972
G1 X2.037 Y14.614 E0.93599
G1 X1.99 Y15.177 E0.96418
G1 X1.864 Y15.728 E0.99238
G1 X1.662 Y16.256 E1.02058
G1 X1.387 Y16.75 E1.04879
G1 X1.045 Y17.2 E1.07699
G1 X0.643 Y17.598 E1.10521
G1 X0.19 Y17.935 E1.13338
G1 X-.307 Y18.205 E1.1616
G1 X-.837 Y18.402 E1.18981
G1 X-1.389 Y18.523 E1.218
G1 X-1.851 Y18.562 E1.24113
G1 X-2.172 Y18.571 E1.25715
G1 X-2.284 Y18.573 E1.26274
G1 X-20.349 Y18.573 E2.16401
G1 X-21.047 Y18.564 E2.19883
G1 X-21.61 Y18.516 E2.22702
G1 X-22.161 Y18.39 E2.25522
G1 X-22.689 Y18.188 E2.28343
G1 X-23.183 Y17.913 E2.31163
G1 X-23.633 Y17.571 E2.33983
G1 X-24.031 Y17.169 E2.36805
G1 X-24.367 Y16.715 E2.39623
G1 X-24.637 Y16.218 E2.42445
G1 X-24.834 Y15.688 E2.45266
G1 X-24.954 Y15.136 E2.48084
G1 X-24.994 Y14.672 E2.50408
G1 X-25.003 Y14.339 E2.5207
G1 X-25.004 Y14.232 E2.52604
G1 X-25.008 Y-3.726 E3.42196
G1 X-25.008 Y-3.786 E3.42496
G1 X-24.998 Y-4.465 E3.45884
G1 X-24.985 Y-4.733 E3.47222
G1 X-24.98 Y-4.794 E3.47528
G1 X-24.894 Y-5.353 E3.50349
G1 X-24.73 Y-5.894 E3.5317
G1 X-24.491 Y-6.406 E3.55989
G1 X-24.183 Y-6.88 E3.58809
G1 X-23.811 Y-7.306 E3.6163
G1 X-23.383 Y-7.675 E3.6445
G1 X-22.907 Y-7.98 E3.6727
G1 X-22.392 Y-8.214 E3.70092
G1 X-21.85 Y-8.374 E3.72912
G1 X-21.05 Y-8.467 E3.7693
G1 X-20.352 Y-8.477 E3.80413
G1 X-2.604 Y-8.477 E4.68958
G1 X-1.906 Y-8.467 E4.7244
G1 X-1.342 Y-8.419 E4.75264
G1 X-.792 Y-8.292 E4.7808
G1 X-.264 Y-8.088 E4.80904
G1 X0.23 Y-7.813 E4.83725
G1 X0.679 Y-7.47 E4.86544
G1 X1.076 Y-7.068 E4.89363
G1 X1.413 Y-6.613 E4.92188
G1 X1.681 Y-6.116 E4.95005
G1 X1.877 Y-5.586 E4.97824
G1 X1.997 Y-5.033 E5.00647
G1 X2.035 Y-4.579 E5.0292
G1 X2.044 Y-4.259 E5.04517
G1 X2.046 Y-4.147 E5.05076
G0 F3600 X1.646 Y-4.147
G1 F1800 X1.646 Y13.882 E5.95023
G1 X1.637 Y14.609 E5.9865
G1 X1.59 Y15.143 E6.01325
G1 X1.465 Y15.664 E6.03998
G1 X1.263 Y16.161 E6.06674
G1 X0.99 Y16.623 E6.09352
G1 X0.652 Y17.039 E6.12026
G1 X0.255 Y17.4 E6.14703
G1 X-.191 Y17.698 E6.17379
G1 X-.676 Y17.926 E6.20053
G1 X-1.19 Y18.08 E6.2273
G1 X-1.862 Y18.163 E6.26108
G1 X-2.183 Y18.172 E6.2771
G1 X-2.284 Y18.173 E6.28214
G1 X-20.343 Y18.173 E7.1831
G1 X-21.041 Y18.164 E7.21793
G1 X-21.576 Y18.117 E7.24472
G1 X-22.097 Y17.991 E7.27147
G1 X-22.594 Y17.789 E7.29823
G1 X-23.055 Y17.516 E7.32496
G1 X-23.471 Y17.177 E7.35173
G1 X-23.832 Y16.781 E7.37847
G1 X-24.13 Y16.335 E7.40523
G1 X-24.358 Y15.849 E7.43201
G1 X-24.511 Y15.335 E7.45877
G1 X-24.594 Y14.661 E7.49265
G1 X-24.603 Y14.328 E7.50927
G1 X-24.604 Y14.232 E7.51406
G1 X-24.608 Y-3.726 E8.40998
G1 X-24.608 Y-3.78 E8.41268
G1 X-24.598 Y-4.459 E8.44656
G1 X-24.586 Y-4.7 E8.4586
G1 X-24.581 Y-4.761 E8.46165
G1 X-24.497 Y-5.291 E8.48842
G1 X-24.336 Y-5.802 E8.51515
G1 X-24.101 Y-6.284 E8.5419
G1 X-23.796 Y-6.726 E8.5687
G1 X-23.43 Y-7.117 E8.59542
G1 X-23.009 Y-7.45 E8.62219
G1 X-22.544 Y-7.716 E8.64892
G1 X-22.044 Y-7.91 E8.67568
G1 X-21.521 Y-8.028 E8.70243
G1 X-21.045 Y-8.067 E8.72625
G1 X-20.347 Y-8.077 E8.76108
G1 X-2.609 Y-8.077 E9.64603
G1 X-1.911 Y-8.067 E9.68086
G1 X-1.377 Y-8.019 E9.70761
G1 X-.856 Y-7.893 E9.73435
G1 X-.359 Y-7.69 E9.76114
G1 X0.102 Y-7.416 E9.78789
G1 X0.517 Y-7.077 E9.81462
G1 X0.877 Y-6.679 E9.8414
G1 X1.174 Y-6.233 E9.86813
G1 X1.402 Y-5.747 E9.89491
G1 X1.554 Y-5.233 E9.92166
G1 X1.636 Y-4.568 E9.95508
G1 X1.645 Y-4.248 E9.97106
G1 X1.646 Y-4.147 E9.97609
G0 F3600 X1.246 Y-4.147
M104 S185
G1 F1800 X1.246 Y13.877 E10.87532
G1 X1.237 Y14.604 E10.91159
G1 X1.191 Y15.107 E10.93679
G1 X1.066 Y15.597 E10.96202
G1 X0.865 Y16.061 E10.98724
G1 X0.594 Y16.488 E11.01248
G1 X0.259 Y16.867 E11.03771
G1 X-.131 Y17.188 E11.06291
G1 X-.567 Y17.444 E11.08814
G1 X-1.038 Y17.627 E11.11335
G1 X-1.532 Y17.735 E11.13857
G1 X-1.873 Y17.763 E11.15564
G1 X-2.194 Y17.772 E11.17167
G1 X-2.284 Y17.773 E11.17616
G1 X-20.338 Y17.773 E12.07687
G1 X-21.036 Y17.764 E12.1117
G1 X-21.54 Y17.717 E12.13695
G1 X-22.03 Y17.592 E12.16218
G1 X-22.494 Y17.391 E12.18741
G1 X-22.92 Y17.12 E12.2126
G1 X-23.299 Y16.785 E12.23784
G1 X-23.62 Y16.394 E12.26307
G1 X-23.875 Y15.958 E12.28827
G1 X-24.059 Y15.487 E12.3135
G1 X-24.166 Y14.993 E12.33872
G1 X-24.194 Y14.65 E12.35589
G1 X-24.203 Y14.317 E12.37251
G1 X-24.204 Y14.232 E12.37675
G1 X-24.208 Y-3.726 E13.27268
G1 X-24.208 Y-3.774 E13.27507
G1 X-24.198 Y-4.453 E13.30895
G1 X-24.187 Y-4.667 E13.31964
G1 X-24.182 Y-4.728 E13.32269
G1 X-24.101 Y-5.227 E13.34792
G1 X-23.943 Y-5.708 E13.37317
G1 X-23.711 Y-6.157 E13.39839
G1 X-23.411 Y-6.564 E13.42361
G1 X-23.05 Y-6.918 E13.44884
G1 X-22.638 Y-7.212 E13.47409
G1 X-22.186 Y-7.436 E13.49926
G1 X-21.703 Y-7.587 E13.5245
G1 X-21.039 Y-7.667 E13.55787
G1 X-20.341 Y-7.677 E13.5927
G1 X-2.615 Y-7.677 E14.47705
G1 X-1.917 Y-7.667 E14.51188
G1 X-1.414 Y-7.62 E14.53708
G1 X-.924 Y-7.494 E14.56232
G1 X-.46 Y-7.292 E14.58757
G1 X-0.034 Y-7.02 E14.61279
G1 X0.344 Y-6.685 E14.63799
G1 X0.664 Y-6.294 E14.66319
G1 X0.919 Y-5.857 E14.68844
G1 X1.102 Y-5.386 E14.71365
G1 X1.209 Y-4.892 E14.73886
G1 X1.236 Y-4.557 E14.75563
G1 X1.245 Y-4.237 E14.7716
G1 X1.246 Y-4.147 E14.77609
;MESH:justdice.stl
G0 F3600 X209.2 Y161.2
G1 F1200 E-1.22391
G1 F600 Z1.3
G92 E0
T1
G92 E0
M105
M109 S200
M104 T0 S190
G1 F1500 E-6.5
G0 F3600 X209.2 Y161.2 Z1.3
G0 X2.231 Y17.639
;TYPE:SKIRT
G1 F600 Z0.3
G1 F1500 E0
G1 F1800 X1.818 Y18.134 E0.03216
G1 X1.347 Y18.574 E0.06432
G1 X0.825 Y18.953 E0.0965
G1 X0.261 Y19.264 E0.12863
G1 X-.338 Y19.503 E0.16081
G1 X-.961 Y19.667 E0.19295
G1 X-1.817 Y19.762 E0.23592
G1 X-2.138 Y19.771 E0.25194
G1 X-2.284 Y19.773 E0.25922
G1 X-20.364 Y19.773 E1.16124
G1 X-21.062 Y19.764 E1.19607
G1 X-21.705 Y19.715 E1.22824
G1 X-22.337 Y19.588 E1.2604
G1 X-22.948 Y19.383 E1.29255
G1 X-23.529 Y19.105 E1.32469
G1 X-24.072 Y18.756 E1.35689
G1 X-24.567 Y18.343 E1.38905
G1 X-25.007 Y17.872 E1.42121
G1 X-25.386 Y17.35 E1.45339
G1 X-25.697 Y16.786 E1.48552
G1 X-25.935 Y16.187 E1.51768
G1 X-26.098 Y15.563 E1.54986
G1 X-26.193 Y14.704 E1.59297
G1 X-26.202 Y14.371 E1.60959
G1 X-26.204 Y14.232 E1.61653
G1 X-26.208 Y-3.726 E2.51246
G1 X-26.207 Y-3.804 E2.51635
G1 X-26.197 Y-4.483 E2.55023
G1 X-26.181 Y-4.831 E2.56761
G1 X-26.176 Y-4.892 E2.57066
G1 X-26.083 Y-5.53 E2.60283
G1 X-25.913 Y-6.152 E2.635
G1 X-25.666 Y-6.747 E2.66714
G1 X-25.348 Y-7.308 E2.69931
G1 X-24.963 Y-7.825 E2.73147
G1 X-24.517 Y-8.291 E2.76365
G1 X-24.017 Y-8.697 E2.79578
G1 X-23.47 Y-9.039 E2.82797
G1 X-22.886 Y-9.31 E2.86009
G1 X-22.272 Y-9.507 E2.89226
G1 X-21.638 Y-9.627 E2.92445
G1 X-21.067 Y-9.666 E2.953
G1 X-20.369 Y-9.676 E2.98783
G1 X-20.295 Y-9.677 E2.99152
G1 X-2.661 Y-9.677 E3.87129
G1 X-2.587 Y-9.676 E3.87498
G1 X-1.889 Y-9.666 E3.90981
G1 X-1.246 Y-9.617 E3.94198
G1 X-.614 Y-9.489 E3.97415
G1 X-0.003 Y-9.283 E4.00632
G1 X0.578 Y-9.004 E4.03847
G1 X1.12 Y-8.655 E4.07064
G1 X1.614 Y-8.241 E4.10279
G1 X2.054 Y-7.769 E4.13498
G1 X2.432 Y-7.247 E4.16714
G1 X2.742 Y-6.682 E4.19929
G1 X2.98 Y-6.083 E4.23145
G1 X3.142 Y-5.459 E4.26361
G1 X3.235 Y-4.613 E4.30607
G1 X3.244 Y-4.293 E4.32204
G1 X3.246 Y-4.147 E4.32933
G1 X3.246 Y13.901 E5.22975
G1 X3.237 Y14.628 E5.26602
G1 X3.189 Y15.271 E5.29819
G1 X3.062 Y15.903 E5.33035
G1 X2.857 Y16.515 E5.36255
G1 X2.579 Y17.096 E5.39468
G1 X2.231 Y17.639 E5.42686
G0 F3600 X1.835 Y17.499
G1 F1800 X1.425 Y17.964 E5.45779
G1 X0.959 Y18.372 E5.48869
G1 X0.445 Y18.716 E5.51954
G1 X-.11 Y18.992 E5.55047
G1 X-.696 Y19.194 E5.58139
G1 X-1.302 Y19.318 E5.61225
G1 X-1.828 Y19.362 E5.63859
G1 X-2.149 Y19.371 E5.65461
G1 X-2.284 Y19.373 E5.66134
G1 X-20.359 Y19.373 E6.56311
G1 X-21.057 Y19.364 E6.59794
G1 X-21.674 Y19.316 E6.62881
G1 X-22.281 Y19.189 E6.65975
G1 X-22.865 Y18.985 E6.69061
G1 X-23.419 Y18.707 E6.72154
G1 X-23.932 Y18.36 E6.75243
G1 X-24.397 Y17.951 E6.78333
G1 X-24.804 Y17.484 E6.81424
G1 X-25.149 Y16.97 E6.84512
G1 X-25.424 Y16.415 E6.87602
G1 X-25.625 Y15.829 E6.90693
G1 X-25.75 Y15.222 E6.93785
G1 X-25.793 Y14.694 E6.96428
G1 X-25.802 Y14.361 E6.9809
G1 X-25.804 Y14.232 E6.98733
G1 X-25.808 Y-3.726 E7.88326
G1 X-25.807 Y-3.798 E7.88685
G1 X-25.797 Y-4.477 E7.92073
G1 X-25.782 Y-4.798 E7.93677
G1 X-25.777 Y-4.859 E7.93982
G1 X-25.687 Y-5.472 E7.97073
G1 X-25.518 Y-6.068 E8.00164
G1 X-25.274 Y-6.637 E8.03252
G1 X-24.959 Y-7.17 E8.06341
G1 X-24.578 Y-7.659 E8.09434
G1 X-24.137 Y-8.094 E8.12524
G1 X-23.644 Y-8.468 E8.15612
G1 X-23.107 Y-8.776 E8.187
G1 X-22.534 Y-9.013 E8.21794
G1 X-21.936 Y-9.173 E8.24882
G1 X-21.062 Y-9.267 E8.29268
G1 X-20.364 Y-9.277 E8.3275
G1 X-2.592 Y-9.277 E9.21415
G1 X-1.894 Y-9.267 E9.24898
G1 X-1.277 Y-9.218 E9.27986
G1 X-.671 Y-9.09 E9.31076
G1 X-0.086 Y-8.885 E9.34168
G1 X0.467 Y-8.606 E9.37259
G1 X0.98 Y-8.259 E9.40348
G1 X1.444 Y-7.849 E9.43438
G1 X1.851 Y-7.382 E9.46528
G1 X2.194 Y-6.867 E9.49615
G1 X2.469 Y-6.311 E9.5271
G1 X2.669 Y-5.725 E9.55799
G1 X2.793 Y-5.118 E9.5889
G1 X2.835 Y-4.602 E9.61473
G1 X2.844 Y-4.282 E9.6307
G1 X2.846 Y-4.147 E9.63743
G1 X2.846 Y13.896 E10.5376
G1 X2.837 Y14.623 E10.57388
G1 X2.789 Y15.241 E10.6048
G1 X2.662 Y15.847 E10.63569
G1 X2.459 Y16.432 E10.66658
G1 X2.181 Y16.986 E10.69751
G1 X1.835 Y17.499 E10.72838
G0 F3600 X1.44 Y17.354
G1 F1800 X1.034 Y17.786 E10.75796
G1 X0.573 Y18.159 E10.78754
G1 X0.067 Y18.468 E10.81712
G1 X-.476 Y18.705 E10.84668
G1 X-1.047 Y18.868 E10.8763
G1 X-1.84 Y18.962 E10.91614
G1 X-2.161 Y18.971 E10.93217
G1 X-2.284 Y18.973 E10.9383
G1 X-20.354 Y18.973 E11.83982
G1 X-21.052 Y18.964 E11.87464
G1 X-21.643 Y18.916 E11.90423
G1 X-22.222 Y18.789 E11.9338
G1 X-22.779 Y18.586 E11.96338
G1 X-23.304 Y18.31 E11.99297
G1 X-23.786 Y17.965 E12.02254
G1 X-24.218 Y17.559 E12.05212
G1 X-24.592 Y17.098 E12.08173
G1 X-24.9 Y16.592 E12.11129
G1 X-25.137 Y16.048 E12.14089
G1 X-25.299 Y15.478 E12.17045
G1 X-25.393 Y14.683 E12.21039
G1 X-25.402 Y14.35 E12.22701
G1 X-25.404 Y14.232 E12.2329
G1 X-25.408 Y-3.726 E13.12883
G1 X-25.408 Y-3.792 E13.13212
G1 X-25.398 Y-4.471 E13.166
G1 X-25.383 Y-4.765 E13.18069
G1 X-25.378 Y-4.826 E13.18374
G1 X-25.29 Y-5.413 E13.21335
G1 X-25.124 Y-5.982 E13.24293
G1 X-24.883 Y-6.524 E13.27252
G1 X-24.571 Y-7.028 E13.30209
G1 X-24.194 Y-7.486 E13.33169
G1 X-23.759 Y-7.889 E13.36127
G1 X-23.274 Y-8.23 E13.39085
G1 X-22.747 Y-8.502 E13.42044
G1 X-22.189 Y-8.701 E13.44999
G1 X-21.609 Y-8.824 E13.47957
G1 X-21.056 Y-8.867 E13.50725
G1 X-20.358 Y-8.877 E13.54207
G1 X-2.598 Y-8.877 E14.42812
G1 X-1.9 Y-8.867 E14.46295
G1 X-1.309 Y-8.818 E14.49254
G1 X-.73 Y-8.691 E14.52211
G1 X-.173 Y-8.487 E14.5517
G1 X0.351 Y-8.209 E14.5813
G1 X0.833 Y-7.864 E14.61087
G1 X1.265 Y-7.457 E14.64048
G1 X1.637 Y-6.996 E14.67003
G1 X1.945 Y-6.489 E14.69963
G1 X2.181 Y-5.945 E14.72921
G1 X2.342 Y-5.375 E14.75876
G1 X2.435 Y-4.591 E14.79815
G1 X2.444 Y-4.271 E14.81412
G1 X2.446 Y-4.147 E14.82031
G1 X2.446 Y13.891 E15.72023
G1 X2.437 Y14.618 E15.7565
G1 X2.389 Y15.21 E15.78613
G1 X2.263 Y15.789 E15.8157
G1 X2.06 Y16.346 E15.84527
G1 X1.784 Y16.871 E15.87487
G1 X1.44 Y17.354 E15.90445
G1 F1500 E9.40445
G0 F3600 X-1.289 Y13.959
G0 X-2.564 Y13.959
G0 X-2.75 Y13.973
;TYPE:WALL-INNER
G1 F1500 E15.90445
G1 F1800 X-20.404 Y13.973 E16.78521
G1 X-20.408 Y-3.677 E17.66577
G1 X-20.408 Y-3.877 E17.67575
G1 X-20.208 Y-3.877 E17.68221
G1 X-2.554 Y-3.877 E18.56297
G1 X-2.55 Y13.773 E19.44354
G1 X-2.55 Y13.973 E19.45351
G1 X-2.75 Y13.973 E19.45997
G0 F3600 X-2.75 Y13.873
G0 X-6.039 Y9.532
G0 X-6.116 Y9.469
G1 F1800 X-5.682 Y8.882 E19.4964
G1 X-5.313 Y8.255 E19.53269
G1 X-5.012 Y7.594 E19.56893
G1 X-4.781 Y6.904 E19.60523
G1 X-4.623 Y6.193 E19.64157
G1 X-4.541 Y5.47 E19.67787
G1 X-4.536 Y4.742 E19.71419
G1 X-4.605 Y4.019 E19.75042
G1 X-4.75 Y3.306 E19.78672
G1 X-4.969 Y2.612 E19.82303
G1 X-5.26 Y1.944 E19.85938
G1 X-5.618 Y1.312 E19.89562
G1 X-6.041 Y0.72 E19.93192
G1 X-6.522 Y0.176 E19.96815
G1 X-7.031 Y-.293 E20.00268
G1 X-7.614 Y-.727 E20.03894
G1 X-8.239 Y-1.1 E20.07525
G1 X-8.899 Y-1.405 E20.11152
G1 X-9.588 Y-1.639 E20.14783
G1 X-10.298 Y-1.801 E20.18416
G1 X-11.019 Y-1.887 E20.22038
G1 X-11.747 Y-1.898 E20.25671
G1 X-12.472 Y-1.831 E20.29303
G1 X-13.185 Y-1.69 E20.32929
G1 X-13.88 Y-1.476 E20.36557
G1 X-14.549 Y-1.189 E20.40189
G1 X-15.184 Y-.833 E20.43821
G1 X-15.778 Y-.414 E20.47448
G1 X-16.326 Y0.066 E20.51082
G1 X-16.843 Y0.627 E20.54888
G1 X-17.276 Y1.212 E20.58519
G1 X-17.646 Y1.84 E20.62156
G1 X-17.947 Y2.502 E20.65784
G1 X-18.178 Y3.191 E20.69409
G1 X-18.336 Y3.902 E20.73043
G1 X-18.418 Y4.625 E20.76673
G1 X-18.423 Y5.353 E20.80305
G1 X-18.353 Y6.077 E20.83934
G1 X-18.209 Y6.789 E20.87558
G1 X-17.99 Y7.483 E20.91189
G1 X-17.699 Y8.15 E20.9482
G1 X-17.341 Y8.784 E20.98452
G1 X-16.918 Y9.377 E21.02086
G1 X-16.437 Y9.92 E21.05705
G1 X-15.927 Y10.388 E21.09159
G1 X-15.345 Y10.823 E21.12784
G1 X-14.72 Y11.195 E21.16412
G1 X-14.059 Y11.5 E21.20044
G1 X-13.371 Y11.734 E21.2367
G1 X-12.661 Y11.896 E21.27303
G1 X-11.94 Y11.982 E21.30926
G1 X-11.213 Y11.993 E21.34553
G1 X-10.486 Y11.927 E21.38195
G1 X-9.774 Y11.785 E21.41817
G1 X-9.079 Y11.571 E21.45445
G1 X-8.41 Y11.284 E21.49077
G1 X-7.774 Y10.928 E21.52713
G1 X-7.18 Y10.509 E21.5634
G1 X-6.633 Y10.029 E21.5997
G1 X-6.116 Y9.469 E21.63773
G0 F3600 X-6.425 Y9.214
;TYPE:WALL-OUTER
G1 F1800 X-6.016 Y8.661 E21.67204
G1 X-5.668 Y8.07 E21.70626
G1 X-5.385 Y7.447 E21.7404
G1 X-5.167 Y6.797 E21.7746
G1 X-5.018 Y6.127 E21.80885
G1 X-4.941 Y5.446 E21.84304
G1 X-4.936 Y4.76 E21.87726
G1 X-5.001 Y4.078 E21.91144
G1 X-5.138 Y3.406 E21.94566
G1 X-5.344 Y2.752 E21.97987
G1 X-5.618 Y2.123 E22.0141
G1 X-5.956 Y1.527 E22.04828
G1 X-6.354 Y0.969 E22.08247
G1 X-6.808 Y0.456 E22.11665
G1 X-7.287 Y0.015 E22.14913
G1 X-7.837 Y-.394 E22.18333
G1 X-8.426 Y-.746 E22.21756
G1 X-9.048 Y-1.033 E22.25174
G1 X-9.697 Y-1.254 E22.28594
G1 X-10.366 Y-1.406 E22.32017
G1 X-11.046 Y-1.487 E22.35434
G1 X-11.732 Y-1.498 E22.38856
G1 X-12.415 Y-1.435 E22.42278
G1 X-13.087 Y-1.302 E22.45696
G1 X-13.742 Y-1.1 E22.49116
G1 X-14.372 Y-.83 E22.52535
G1 X-14.97 Y-.494 E22.55957
G1 X-15.53 Y-0.099 E22.59376
G1 X-16.046 Y0.353 E22.62799
G1 X-16.534 Y0.882 E22.66389
G1 X-16.942 Y1.433 E22.6981
G1 X-17.291 Y2.025 E22.73238
G1 X-17.574 Y2.649 E22.76657
G1 X-17.792 Y3.298 E22.80072
G1 X-17.941 Y3.968 E22.83497
G1 X-18.018 Y4.649 E22.86916
G1 X-18.023 Y5.335 E22.90338
G1 X-17.957 Y6.018 E22.93762
G1 X-17.821 Y6.689 E22.97178
G1 X-17.615 Y7.343 E23.00598
G1 X-17.341 Y7.971 E23.04017
G1 X-17.003 Y8.569 E23.07444
G1 X-16.605 Y9.127 E23.10863
G1 X-16.151 Y9.639 E23.14277
G1 X-15.671 Y10.08 E23.17529
G1 X-15.122 Y10.49 E23.20948
G1 X-14.533 Y10.841 E23.24368
G1 X-13.91 Y11.128 E23.2779
G1 X-13.262 Y11.349 E23.31206
G1 X-12.593 Y11.501 E23.34629
G1 X-11.913 Y11.582 E23.38045
G1 X-11.228 Y11.593 E23.41463
G1 X-10.543 Y11.531 E23.44895
G1 X-9.872 Y11.397 E23.48309
G1 X-9.217 Y11.195 E23.51728
G1 X-8.587 Y10.925 E23.55148
G1 X-7.988 Y10.589 E23.58574
G1 X-7.428 Y10.194 E23.61993
G1 X-6.913 Y9.742 E23.65412
G1 X-6.425 Y9.214 E23.68999
G0 F3600 X-6.306 Y9.054
G0 X-5.906 Y9.352
G0 X-2.62 Y13.903
G0 X-2.152 Y14.373
G1 F1800 X-2.21 Y14.373 E23.69288
G1 X-20.804 Y14.373 E24.62054
G1 X-20.808 Y-4.077 E25.54101
G1 X-20.808 Y-4.277 E25.55099
G1 X-20.608 Y-4.277 E25.55745
G1 X-2.154 Y-4.277 E26.47813
G1 X-2.15 Y14.032 E27.39157
G1 X-2.15 Y14.09 E27.39446
G1 X-2.152 Y14.373 E27.40858
G0 F3600 X-2.21 Y14.373
G0 X-2.352 Y14.373
G0 X-2.94 Y13.583
;TYPE:SKIN
G1 F1800 X-20.014 Y13.583 E28.2604
G1 X-20.018 Y-3.487 E29.11203
G1 X-2.944 Y-3.487 E29.96386
G1 X-2.94 Y13.583 E30.81548
G0 F3600 X-6.36 Y10.308
